image/logo.svg

<svg fill="none" height="45" viewBox="0 0 125 45" width="125" xmlns="http://www.w3.org/2000/svg"><path d="m65.8624.0426461c.0859.0175154.2246.1433079.2676.2277009 3.5903 6.776883 7.4416 13.424753 10.8832 20.274953l1.9199-3.8296 9.1912-16.552038c.0314-.0414.1471-.1194233.1834-.1194233h2.5907l.1074.1035003v27.430761l-.1074.1035h-2.3015l-.1074-.1035v-23.65539l-10.3214 18.84659-2.4916-.0493-9.9926-18.62373-.1454.07166c-.0182.09394.0727.17834.0727.20541v23.20476l-.1074.1035h-2.3015l-.1074-.1035v-27.430761l.1074-.1035003h2.6617z" fill="#fa4549"/><path d="m32.7684.0426461.1123.2388469-.0066 17.599807c.4808 5.925 3.9736 8.4823 10.0422 8.1383 5.1252-.2898 7.5044-3.9394 7.734-8.5539.2809-5.6495-.2131-11.51398-.0066-17.184207l.1124-.2388469h2.3015l.1124.2388469c-.1917 5.663857.2428 11.469407 0 17.115807-.2826 6.5332-4.0248 10.4567-10.8981 10.772-6.9723.3184-11.5324-3.5923-11.9125-10.2864v-17.599814l.1107-.2388473h2.3016z" fill="#fa4549"/><path d="m121.327 27.6804c-.061-.0096-.18-.0876-.201-.1576l-3.344-8.2737-.159-.1943h-13.239l-3.47 8.5364c-.125.1385-2.4204.1242-2.498.0159l11.329-27.496c.055-.0716541.131-.0652851.212-.0748389.371-.04299247 1.971-.0557308 2.305.0063693.056.0111462.109.0222923.15.0621006l11.395 27.405269c.015.0573-.076.1688-.107.1688-.659 0-1.781.0939-2.374 0zm-16.077-10.6669h11.474l.098-.1608-5.781-14.17639z" fill="#fa4549"/><path d="m3.12933.0426211c.05287.0079616.14209.0780239.18174.1210159l8.67253 13.864263.2808.2834 8.8824-14.149255c.0347-.039808.1437-.1210165.1817-.1210165h2.3015l.1091.1703775-10.3611 16.211294v11.1526l-.1074.1035h-2.3015l-.1074-.1035v-11.1526l-10.290004-16.209702.109046-.1719695h2.445278z" fill="#fa4549"/><g fill="#1e1e1e"><path d="m19.2797 37.5511c.0909-.3184.9764-.2722 1.2623-.2452.2561.0239.4196.094.6096.2643l2.409 5.7642 2.4816-5.7132c.1636-.4586 1.7993-.4044 1.7993-.0685v7.2387c-.4015.1417-.6774.1417-1.0789 0v-6.511l-2.7278 6.4648c-.3652.2595-.9765.2532-1.1483-.2054-.7138-1.9538-1.5994-3.855-2.3148-5.8072-.0462-.1258-.0776-.25-.0694-.3837h-.2148l.0694 6.2673c-.0809.4029-.7815.3121-1.0772.1752z"/><path d="m53.5962 38.2789c-.1751-.0462-.218.2722-.2693.398-.8195 1.9841-1.6241 3.9729-2.4485 5.9537-.2198.3917-.7601.3487-1.0988.1099l-2.4601-6.2722-.1966-.191c.0115.4028-.0182.812-.0033 1.2149.0528 1.4793.2478 3.5477.076 4.9855-.0744.6274-1.0244.4889-1.0806.207l.0678-7.2084c.1437-.2309 1.064-.2133 1.3316-.1656.3206.0574.5403.4172.6642.6768.7799 1.6353 1.3185 3.5429 2.0769 5.2084.038.0844-.0033.1688.1404.1385l2.4816-5.7657c.3074-.3901 1.1781-.2866 1.6275-.1959.1355.1449.1586.3376.1768.5239.2015 2.105-.152 4.5094-.0083 6.6479-.0562.4666-.7699.4506-1.0739.2118v-6.4759z"/><path d="m67.4584 37.3235c1.9529-.0223 4.2759-.3376 5.3598 1.6002.7319 1.3073.6096 3.7356-.4445 4.8645-.7997.8567-1.7646 1.0175-2.9129 1.0749-.332.0159-2.0289.0573-2.1644-.1386v-7.2752l.1603-.1242zm.9219.8168-.1074.1035v5.6113l.1074.1035h1.8703c.0545 0 .8641-.3805.9666-.4554 1.3763-.9999 1.2887-4.1957-.3041-5.0317-.0991-.0525-.831-.3328-.8773-.3328h-1.6539z"/><path d="m32.357 44.7739c-.1966.1878-1.0558.207-1.0607-.0828l2.7278-7.2833c.1239-.1369.9897-.1401 1.178-.086.1636.0478.2561.3105.3206.4538.6311 1.4029 1.2094 3.1544 1.7464 4.6209.1123.3089.8211 2.2181.7814 2.3455-.1437.2866-.9054.2038-1.0772.0175-.2313-.25-.494-1.742-.7617-1.8295l-3.1904.0223c-.2016.1162-.4808 1.6464-.6625 1.82zm1.1318-2.6847c.6179.0844 1.6324 0 2.3015 0 .0364 0 .1173-.1146.1107-.172l-1.2606-3.4983-1.3235 3.5684c0 .0255.1537.0987.1719.1003z"/><path d="m96.131 44.7723c-.2512-.2293-.5023-1.7372-.6774-1.8407-.9699.0684-2.1793-.1306-3.1211-.016-.0793.0096-.1619-.0063-.2131.0717-.1669.3121-.4345 1.6114-.6279 1.785-.2362.2134-.788.1751-1.0557.0111l2.8468-7.4631h1.1284l.2462.3869 2.5312 6.8501c.1124.5032-.836.4172-1.0574.215zm-3.5077-2.6831h2.3743c.0214 0 .1272-.1035.0974-.1592l-1.3201-3.511-1.2623 3.4967c0 .0621.0578.1576.1107.1735z"/><path d="m9.14995 37.3219c.20158-.0542.91035-.1131.98475.1003.109 1.5557-.1124 3.2324.0066 4.7737.0892 1.1401.6477 1.8885 1.9099 1.9076 1.1153.016 1.7795-.6767 1.9067-1.7021l.0099-4.9776c.0612-.1815.9649-.1497 1.0376-.0494l.0231 5.0891c-.0925 2.9792-5.0243 3.4632-5.81246.7611-.29409-1.0127-.24453-4.3805-.15531-5.5365.00992-.1274.01983-.2548.08757-.3662z"/><path d="m121.22 42.0192v2.7706c-.405.1704-.671.1337-1.079 0v-7.2387c0-.0143.18-.1894.216-.207.169-.0732 2.166-.0652 2.48-.035 1.73.1672 2.532 1.5525 2.001 3.1034-.517 1.5143-2.197 1.6226-3.618 1.6067zm0-.8997h1.475c.212 0 .769-.406.901-.5876.391-.5397.329-1.7483-.291-2.1448-.056-.0366-.507-.2452-.537-.2452h-1.546v2.9792z"/><path d="m63.1643 38.1403h-3.1657v2.3551h2.6981c.2528.2308.2478.6066 0 .8311h-2.6981v2.5971c.1157.172.2809.035.4643.0318.7088-.0143 1.6952-.0636 2.3775.0032.6213.0605.4726.3073.4577.8217-.076.0366-.1619.0621-.2478.0716-.7782.0956-2.7989.086-3.592.0064-.4114-.0414-.5055-.1242-.5435-.5159-.2016-2.1114.1602-4.5126 0-6.6559-.0447-.1019.2114-.3774.2561-.3774h3.957c.304.2691.1504.5271.0364.8312z"/><path d="m87.6071 38.747c-.1685.2054-.793-.3153-1.0128-.4124-1.3994-.6162-2.7708-.0956-3.2631 1.3168-.7386 2.1162.147 5.1559 3.0483 4.2515.2561-.0796 1.0674-.6035 1.2012-.5653.1652.0478.1338.5143.1107.6513-.1091.6512-1.7629.9968-2.3412 1.0015-4.3784.0335-4.3073-6.7354-1.0359-7.6478.8145-.2277 2.5543-.1481 3.1705.4824.2049.2102.3057.6991.124.922z"/><path d="m2.87651 40.911 1.69187-3.5318c.3387-.1895.68237-.0971 1.04255-.07l-.03304.3487-2.25032 4.2753-.02809 2.8121c-.07766.2197-.98968.2643-1.06734-.1322-.15696-.7882.12723-1.9856-.01982-2.8216l-2.1710146-4.1432-.0413054-.3407c.327139-.0239.875675-.1195 1.1202.1337l1.75631 3.4681z"/><path d="m113.739 37.3091v6.6495h2.841c.202 0 .415.8073-.074.8997-1.057-.0748-2.268.1051-3.308 0-.413-.0414-.505-.1258-.543-.5159-.205-2.1496.153-4.605.011-6.7865l.118-.2468z"/><path d="m100.718 37.3091h.955c.09.0319.107.1672.117.2484.188 1.4506.061 4.0047.01 5.5397-.01.2802-.212.6401.033.863h2.734c.217 0 .207.6656.17.8217-.057.0286-.122.0493-.186.0605-.615.1082-2.553.078-3.224.0207-.201-.0175-.462-.0382-.609-.1752z"/><path d="m78.1168 37.3187.0116 7.3676c-.0595.2946-.9418.3344-1.0095 0v-7.2052l.0694-.1401c.3189-.1035.6047-.0812.9285-.0223z"/></g></svg>

<svg width="125" height="45" viewBox="0 0 125 45" fill="none" xmlns="http://www.w3.org/2000/svg">
<path d="M65.8624 0.0426461C65.9483 0.0601615 66.087 0.185954 66.13 0.270347C69.7203 7.04723 73.5716 13.6951 77.0132 20.5453L78.9331 16.7157L88.1243 0.163662C88.1557 0.122262 88.2714 0.0442387 88.3077 0.0442387H90.8984L91.0058 0.147739V27.5785L90.8984 27.682H88.5969L88.4895 27.5785V3.92311L78.1681 22.7697L75.6765 22.7204L65.6839 4.09667L65.5385 4.16833C65.5203 4.26227 65.6112 4.34667 65.6112 4.37374V27.5785L65.5038 27.682H63.2023L63.0949 27.5785V0.147739L63.2023 0.0442387H65.864L65.8624 0.0426461Z" fill="#FA4549"/>
<path d="M32.7684 0.0426461L32.8807 0.281493L32.8741 17.8813C33.3549 23.8063 36.8477 26.3636 42.9163 26.0196C48.0415 25.7298 50.4207 22.0802 50.6503 17.4657C50.9312 11.8162 50.4372 5.95172 50.6437 0.281493L50.7561 0.0426461H53.0576L53.17 0.281493C52.9783 5.94535 53.4128 11.7509 53.17 17.3973C52.8874 23.9305 49.1452 27.854 42.2719 28.1693C35.2996 28.4877 30.7395 24.577 30.3594 17.8829V0.283086L30.4701 0.0442387H32.7717L32.7684 0.0426461Z" fill="#FA4549"/>
<path d="M121.327 27.6804C121.266 27.6708 121.147 27.5928 121.126 27.5228L117.782 19.2491L117.623 19.0548H104.384L100.914 27.5912C100.789 27.7297 98.4936 27.7154 98.416 27.6071L109.745 0.1111C109.8 0.0394459 109.876 0.0458149 109.957 0.0362611C110.328 -0.00673137 111.928 -0.0194697 112.262 0.0426304C112.318 0.0537766 112.371 0.0649227 112.412 0.104731L123.807 27.51C123.822 27.5673 123.731 27.6788 123.7 27.6788C123.041 27.6788 121.919 27.7727 121.326 27.6788L121.327 27.6804ZM105.25 17.0135H116.724L116.822 16.8527L111.041 2.67631L105.25 17.0135Z" fill="#FA4549"/>
<path d="M3.12933 0.0426211C3.1822 0.0505827 3.27142 0.120645 3.31107 0.163637L11.9836 14.0279L12.2644 14.3113L21.1468 0.162045C21.1815 0.122237 21.2905 0.0410285 21.3285 0.0410285H23.63L23.7391 0.211406L13.378 16.4227V27.5753L13.2706 27.6788H10.9691L10.8617 27.5753V16.4227L0.571696 0.212998L0.680742 0.0410285H3.12602L3.12933 0.0426211Z" fill="#FA4549"/>
<path d="M19.2797 37.5511C19.3706 37.2327 20.2561 37.2789 20.542 37.3059C20.7981 37.3298 20.9616 37.3999 21.1516 37.5702L23.5606 43.3344L26.0422 37.6212C26.2058 37.1626 27.8415 37.2168 27.8415 37.5527V44.7914C27.44 44.9331 27.1641 44.9331 26.7626 44.7914V38.2804L24.0348 44.7452C23.6696 45.0047 23.0583 44.9984 22.8865 44.5398C22.1727 42.586 21.2871 40.6848 20.5717 38.7326C20.5255 38.6068 20.4941 38.4826 20.5023 38.3489H20.2875L20.3569 44.6162C20.276 45.0191 19.5754 44.9283 19.2797 44.7914V37.5511Z" fill="#1E1E1E"/>
<path d="M53.5962 38.2789C53.4211 38.2327 53.3782 38.5511 53.3269 38.6769C52.5074 40.661 51.7028 42.6498 50.8784 44.6306C50.6586 45.0223 50.1183 44.9793 49.7796 44.7405L47.3195 38.4683L47.1229 38.2773C47.1344 38.6801 47.1047 39.0893 47.1196 39.4922C47.1724 40.9715 47.3674 43.0399 47.1956 44.4777C47.1212 45.1051 46.1712 44.9666 46.115 44.6847L46.1828 37.4763C46.3265 37.2454 47.2468 37.263 47.5144 37.3107C47.835 37.3681 48.0547 37.7279 48.1786 37.9875C48.9585 39.6228 49.4971 41.5304 50.2555 43.1959C50.2935 43.2803 50.2522 43.3647 50.3959 43.3344L52.8775 37.5687C53.1849 37.1786 54.0556 37.2821 54.505 37.3728C54.6405 37.5177 54.6636 37.7104 54.6818 37.8967C54.8833 40.0017 54.5298 42.4061 54.6735 44.5446C54.6173 45.0112 53.9036 44.9952 53.5996 44.7564V38.2805L53.5962 38.2789Z" fill="#1E1E1E"/>
<path d="M67.4584 37.3235C69.4113 37.3012 71.7343 36.9859 72.8182 38.9237C73.5501 40.231 73.4278 42.6593 72.3737 43.7882C71.574 44.6449 70.6091 44.8057 69.4608 44.8631C69.1288 44.879 67.4319 44.9204 67.2964 44.7245V37.4493L67.4567 37.3251L67.4584 37.3235ZM68.3803 38.1403L68.2729 38.2438V43.8551L68.3803 43.9586H70.2506C70.3051 43.9586 71.1147 43.5781 71.2172 43.5032C72.5935 42.5033 72.5059 39.3075 70.9131 38.4715C70.814 38.419 70.0821 38.1387 70.0358 38.1387H68.3819L68.3803 38.1403Z" fill="#1E1E1E"/>
<path d="M32.357 44.7739C32.1604 44.9617 31.3012 44.9809 31.2963 44.6911L34.0241 37.4078C34.148 37.2709 35.0138 37.2677 35.2021 37.3218C35.3657 37.3696 35.4582 37.6323 35.5227 37.7756C36.1538 39.1785 36.7321 40.93 37.2691 42.3965C37.3814 42.7054 38.0902 44.6146 38.0505 44.742C37.9068 45.0286 37.1451 44.9458 36.9733 44.7595C36.742 44.5095 36.4793 43.0175 36.2116 42.93L33.0212 42.9523C32.8196 43.0685 32.5404 44.5987 32.3587 44.7723L32.357 44.7739ZM33.4888 42.0892C34.1067 42.1736 35.1212 42.0892 35.7903 42.0892C35.8267 42.0892 35.9076 41.9746 35.901 41.9172L34.6404 38.4189L33.3169 41.9873C33.3169 42.0128 33.4706 42.086 33.4888 42.0876V42.0892Z" fill="#1E1E1E"/>
<path d="M96.131 44.7723C95.8798 44.543 95.6287 43.0351 95.4536 42.9316C94.4837 43 93.2743 42.801 92.3325 42.9156C92.2532 42.9252 92.1706 42.9093 92.1194 42.9873C91.9525 43.2994 91.6849 44.5987 91.4915 44.7723C91.2553 44.9857 90.7035 44.9474 90.4358 44.7834L93.2826 37.3203H94.411L94.6572 37.7072L97.1884 44.5573C97.3008 45.0605 96.3524 44.9745 96.131 44.7723ZM92.6233 42.0892H94.9976C95.019 42.0892 95.1248 41.9857 95.095 41.93L93.7749 38.419L92.5126 41.9157C92.5126 41.9778 92.5704 42.0733 92.6233 42.0892Z" fill="#1E1E1E"/>
<path d="M9.14995 37.3219C9.35153 37.2677 10.0603 37.2088 10.1347 37.4222C10.2437 38.9779 10.0223 40.6546 10.1413 42.1959C10.2305 43.336 10.789 44.0844 12.0512 44.1035C13.1665 44.1195 13.8307 43.4268 13.9579 42.4014L13.9678 37.4238C14.029 37.2423 14.9327 37.2741 15.0054 37.3744L15.0285 42.4635C14.936 45.4427 10.0042 45.9267 9.21604 43.2246C8.92195 42.2119 8.97151 38.8441 9.06073 37.6881C9.07065 37.5607 9.08056 37.4333 9.1483 37.3219H9.14995Z" fill="#1E1E1E"/>
<path d="M121.22 42.0192V44.7898C120.815 44.9602 120.549 44.9235 120.141 44.7898V37.5511C120.141 37.5368 120.321 37.3617 120.357 37.3441C120.526 37.2709 122.523 37.2789 122.837 37.3091C124.567 37.4763 125.369 38.8616 124.838 40.4125C124.321 41.9268 122.641 42.0351 121.22 42.0192ZM121.22 41.1195H122.695C122.907 41.1195 123.464 40.7135 123.596 40.5319C123.987 39.9922 123.925 38.7836 123.305 38.3871C123.249 38.3505 122.798 38.1419 122.768 38.1419H121.222V41.1211L121.22 41.1195Z" fill="#1E1E1E"/>
<path d="M63.1643 38.1403H59.9986V40.4954H62.6967C62.9495 40.7262 62.9445 41.102 62.6967 41.3265H59.9986V43.9236C60.1143 44.0956 60.2795 43.9586 60.4629 43.9554C61.1717 43.9411 62.1581 43.8918 62.8404 43.9586C63.4617 44.0191 63.313 44.2659 63.2981 44.7803C63.2221 44.8169 63.1362 44.8424 63.0503 44.8519C62.2721 44.9475 60.2514 44.9379 59.4583 44.8583C59.0469 44.8169 58.9528 44.7341 58.9148 44.3424C58.7132 42.231 59.075 39.8298 58.9148 37.6865C58.8701 37.5846 59.1262 37.3091 59.1709 37.3091H63.1279C63.4319 37.5782 63.2783 37.8362 63.1643 38.1403Z" fill="#1E1E1E"/>
<path d="M87.6071 38.747C87.4386 38.9524 86.8141 38.4317 86.5943 38.3346C85.1949 37.7184 83.8235 38.239 83.3312 39.6514C82.5926 41.7676 83.4782 44.8073 86.3795 43.9029C86.6356 43.8233 87.4469 43.2994 87.5807 43.3376C87.7459 43.3854 87.7145 43.8519 87.6914 43.9889C87.5823 44.6401 85.9285 44.9857 85.3502 44.9904C80.9718 45.0239 81.0429 38.255 84.3143 37.3426C85.1288 37.1149 86.8686 37.1945 87.4848 37.825C87.6897 38.0352 87.7905 38.5241 87.6088 38.747H87.6071Z" fill="#1E1E1E"/>
<path d="M2.87651 40.911L4.56838 37.3792C4.90708 37.1897 5.25075 37.2821 5.61093 37.3092L5.57789 37.6579L3.32757 41.9332L3.29948 44.7453C3.22182 44.965 2.3098 45.0096 2.23214 44.6131C2.07518 43.8249 2.35937 42.6275 2.21232 41.7915L0.0413054 37.6483L0 37.3076C0.327139 37.2837 0.875675 37.1881 1.1202 37.4413L2.87651 40.9094V40.911Z" fill="#1E1E1E"/>
<path d="M113.739 37.3091V43.9586H116.58C116.782 43.9586 116.995 44.7659 116.506 44.8583C115.449 44.7835 114.238 44.9634 113.198 44.8583C112.785 44.8169 112.693 44.7325 112.655 44.3424C112.45 42.1928 112.808 39.7374 112.666 37.5559L112.784 37.3091H113.739Z" fill="#1E1E1E"/>
<path d="M100.718 37.3091H101.673C101.763 37.341 101.78 37.4763 101.79 37.5575C101.978 39.0081 101.851 41.5622 101.8 43.0972C101.79 43.3774 101.588 43.7373 101.833 43.9602H104.567C104.784 43.9602 104.774 44.6258 104.737 44.7819C104.68 44.8105 104.615 44.8312 104.551 44.8424C103.936 44.9506 101.998 44.9204 101.327 44.8631C101.126 44.8456 100.865 44.8249 100.718 44.6879V37.3091Z" fill="#1E1E1E"/>
<path d="M78.1168 37.3187L78.1284 44.6863C78.0689 44.9809 77.1866 45.0207 77.1189 44.6863V37.4811L77.1883 37.341C77.5072 37.2375 77.793 37.2598 78.1168 37.3187Z" fill="#1E1E1E"/>
</svg>
